X:281
M:none
L:1/4
K:C
z2 D2 (A G A) E F2 (E G) (F E) (D ^C) D2 | A2 A2 d c B A c2 A2 | z B c A A E F F E2 | D E F G F E (D ^C) !fermata!D2 | d2 d2 e d e ^c d2 d2 | e B c A A E F2 E2 | A G A B c B (A ^G) A2 | (B3/2 c/) d2 A G A E F2 E2 | z G (F3/2 E/) (D ^C) (D F) D2 | (F G) (A =B) (c3/2 B/ A3/2 G/ F E) | !sintro!D E F G (F E) D ^C D4 !eintro!|]
